dist/images/socialMedia/twitter.svg

<svg width="15" height="12" viewBox="0 0 15 12" fill="none" xmlns="http://www.w3.org/2000/svg">
<path d="M13.2517 2.99063C13.8515 2.56669 14.3562 2.03316 14.7686 1.42177C14.2178 1.66114 13.6352 1.82264 13.0238 1.9005C13.6525 1.52559 14.1313 0.937275 14.3562 0.22783C13.7708 0.576784 13.1248 0.821918 12.4355 0.960346C11.8818 0.366258 11.0887 0 10.2264 0C8.55085 0 7.20117 1.36121 7.20117 3.02812C7.20117 3.26748 7.22136 3.4982 7.27038 3.71738C4.7556 3.59625 2.52632 2.38789 1.02956 0.550829C0.770009 1.0036 0.614277 1.52271 0.614277 2.08219C0.614277 3.13194 1.15357 4.06056 1.95819 4.59697C1.4708 4.58832 0.994955 4.44701 0.591205 4.22495V4.25955C0.591205 5.73035 1.64096 6.95314 3.01659 7.23288C2.76857 7.29921 2.50037 7.33381 2.22351 7.33381C2.03029 7.33381 1.83418 7.32228 1.64961 7.2819C2.04182 8.48162 3.15502 9.36121 4.47874 9.39005C3.44918 10.1947 2.13987 10.682 0.723866 10.682C0.475848 10.682 0.236482 10.6705 0 10.6417C1.34103 11.5068 2.93007 12 4.64313 12C9.98993 11.9971 13.4708 7.54146 13.2517 2.99063Z" fill="white"/>
</svg>

<svg width="15" height="12" fill="none" xmlns="http://www.w3.org/2000/svg"><path d="M13.252 2.99a6.04 6.04 0 0 0 1.517-1.568c-.551.24-1.134.4-1.745.479A3.006 3.006 0 0 0 14.356.228a6.07 6.07 0 0 1-1.92.732 3.02 3.02 0 0 0-2.21-.96 3.027 3.027 0 0 0-3.025 3.028c0 .24.02.47.07.69A8.572 8.572 0 0 1 1.03.55a3.025 3.025 0 0 0 .929 4.046A2.978 2.978 0 0 1 .59 4.225v.035a3.04 3.04 0 0 0 2.426 2.973 3.08 3.08 0 0 1-.793.1c-.194 0-.39-.01-.574-.051A3.055 3.055 0 0 0 4.479 9.39a6.092 6.092 0 0 1-3.755 1.292c-.248 0-.488-.011-.724-.04A8.518 8.518 0 0 0 4.643 12c5.347-.003 8.828-4.459 8.609-9.01z" fill="#fff"/></svg>
